img/shirt.svg

<svg width="20" height="20" viewBox="0 0 20 20" fill="none" xmlns="http://www.w3.org/2000/svg">
<g clip-path="url(#clip0)">
<path d="M14.572 2.05176L14.3219 2.30236V2.05176H13.0898C12.5343 2.91019 11.3615 3.50357 9.99989 3.50357C8.63876 3.50357 7.46595 2.91019 6.91044 2.05176H5.67834V2.30236L5.42774 2.05176L0.996582 6.48541L3.42042 8.91123L5.67834 6.65231V17.9479H14.3209V6.65281L16.5794 8.91173L19.0027 6.48541L14.572 2.05176Z" fill="url(#paint0_linear)"/>
<path d="M14.3208 18.9443H5.67821C5.12818 18.9443 4.68177 18.4979 4.68177 17.9479V9.05869L4.12476 9.61569C3.93793 9.80302 3.68434 9.90765 3.41978 9.90765C3.15573 9.90765 2.90164 9.80253 2.7148 9.61569L0.29097 7.18987C-0.097641 6.80076 -0.097641 6.17051 0.29097 5.7809L4.72312 1.34725C4.93935 1.13053 5.25174 1.0254 5.55266 1.06327C5.59401 1.05829 5.63586 1.0553 5.67821 1.0553H6.91031C7.2481 1.0553 7.56347 1.22669 7.74681 1.51017C8.13891 2.11601 9.02325 2.50711 9.99976 2.50711C10.9763 2.50711 11.8611 2.11601 12.2532 1.51017C12.4365 1.22669 12.7514 1.0553 13.0897 1.0553H14.3218C14.3642 1.0553 14.406 1.05779 14.4474 1.06327C14.4882 1.05829 14.5296 1.0553 14.5714 1.0553C14.5719 1.0553 14.5719 1.0553 14.5719 1.0553C14.836 1.0553 15.0896 1.16042 15.2769 1.34725L19.7081 5.78041C20.0967 6.16951 20.0967 6.79976 19.7081 7.18937L17.2847 9.61569C17.0979 9.80253 16.8443 9.90765 16.5802 9.90765C16.5797 9.90765 16.5797 9.90765 16.5797 9.90765C16.3157 9.90815 16.0621 9.80303 15.8753 9.61619L15.3177 9.05819V17.9479C15.3173 18.4984 14.8713 18.9443 14.3208 18.9443ZM6.67465 16.9515H13.3244V6.65279C13.3244 6.24973 13.567 5.88653 13.9392 5.73208C14.3118 5.57713 14.7398 5.66283 15.0253 5.94831L16.5787 7.50175L17.5941 6.48539L14.406 3.29529C14.2471 3.30974 14.0906 3.28483 13.9407 3.22305C13.8365 3.1802 13.7424 3.12041 13.6607 3.04817H13.575C12.7524 3.95493 11.4341 4.49998 9.99976 4.49998C8.56539 4.49998 7.2476 3.95493 6.42454 3.04817H6.33885C6.25764 3.12041 6.16348 3.1797 6.05935 3.22305C5.90839 3.28533 5.74796 3.30725 5.59301 3.29529L2.40441 6.48588L3.41978 7.50225L4.97273 5.94831C5.25771 5.66283 5.68618 5.57763 6.05885 5.73208C6.43152 5.88653 6.67415 6.24973 6.67415 6.65279V16.9515H6.67465Z" fill="url(#paint1_linear)"/>
</g>
<defs>
<linearGradient id="paint0_linear" x1="0.996582" y1="10.0853" x2="19.7141" y2="9.80056" gradientUnits="userSpaceOnUse">
<stop stop-color="#FCAF45"/>
<stop offset="0.197917" stop-color="#F77737"/>
<stop offset="0.395833" stop-color="#FD1D1D"/>
<stop offset="0.59375" stop-color="#C13584"/>
<stop offset="0.796875" stop-color="#833AB4"/>
<stop offset="1" stop-color="#405DE6"/>
</linearGradient>
<linearGradient id="paint1_linear" x1="-0.000488251" y1="10.096" x2="20.7898" y2="9.78383" gradientUnits="userSpaceOnUse">
<stop stop-color="#FCAF45"/>
<stop offset="0.197917" stop-color="#F77737"/>
<stop offset="0.395833" stop-color="#FD1D1D"/>
<stop offset="0.59375" stop-color="#C13584"/>
<stop offset="0.796875" stop-color="#833AB4"/>
<stop offset="1" stop-color="#405DE6"/>
</linearGradient>
<clipPath id="clip0">
<rect width="20" height="20" fill="white"/>
</clipPath>
</defs>
</svg>

<svg width="20" height="20" viewBox="0 0 20 20" fill="none" xmlns="http://www.w3.org/2000/svg"><g clip-path="url(#clip0)"><path d="M14.572 2.052l-.25.25v-.25H13.09c-.556.858-1.729 1.452-3.09 1.452-1.361 0-2.534-.594-3.09-1.452H5.678v.25l-.25-.25L.997 6.485 3.42 8.911l2.258-2.259v11.296h8.643V6.653l2.258 2.259 2.424-2.427-4.431-4.433z" fill="url(#paint0_linear)"/><path d="M14.32 18.944H5.679a.997.997 0 01-.996-.996v-8.89l-.557.558a.995.995 0 01-1.41 0L.29 7.19a.997.997 0 010-1.41l4.432-4.433c.216-.216.529-.322.83-.284.041-.005.083-.008.125-.008H6.91a1 1 0 01.837.455c.392.606 1.276.997 2.253.997.976 0 1.861-.391 2.253-.997a.996.996 0 01.837-.455h1.232c.042 0 .084.003.125.008a.999.999 0 01.83.284l4.431 4.433a.997.997 0 010 1.41l-2.423 2.426a.994.994 0 01-1.41 0l-.557-.558v8.89c0 .55-.447.996-.997.996zm-7.645-1.992h6.65v-10.3a.997.997 0 011.7-.704l1.554 1.554 1.015-1.017-3.188-3.19a.993.993 0 01-.745-.247h-.086C12.752 3.955 11.435 4.5 10 4.5s-2.752-.545-3.575-1.452h-.086a.995.995 0 01-.746.247l-3.189 3.19L3.42 7.503l1.553-1.554a.995.995 0 011.701.705v10.299z" fill="url(#paint1_linear)"/></g><defs><linearGradient id="paint0_linear" x1=".997" y1="10.085" x2="19.714" y2="9.801" gradientUnits="userSpaceOnUse"><stop stop-color="#FCAF45"/><stop offset=".198" stop-color="#F77737"/><stop offset=".396" stop-color="#FD1D1D"/><stop offset=".594" stop-color="#C13584"/><stop offset=".797" stop-color="#833AB4"/><stop offset="1" stop-color="#405DE6"/></linearGradient><linearGradient id="paint1_linear" x1="0" y1="10.096" x2="20.79" y2="9.784" gradientUnits="userSpaceOnUse"><stop stop-color="#FCAF45"/><stop offset=".198" stop-color="#F77737"/><stop offset=".396" stop-color="#FD1D1D"/><stop offset=".594" stop-color="#C13584"/><stop offset=".797" stop-color="#833AB4"/><stop offset="1" stop-color="#405DE6"/></linearGradient><clipPath id="clip0"><path fill="#fff" d="M0 0h20v20H0z"/></clipPath></defs></svg>
